X:48
T:Christmas Tree Reel
R:reel
C:Bruce Osborne - Dec. 2002
Z:abc by bosborne@kos.net
M:2/4
L:1/8
K:Gmaj
B/A/|G/D/B,/D/ G/B/A/B/|c/B/c/d/ e/g/f/e/|d/B/G/B/ d/g/f/g/|a/g/f/e/ d/c/B/A/|\
G/D/B,/D/ G/B/A/B/|c/B/c/d/ e/g/f/e/|d/B/G/B/ d/g/f/g/|d/c/A/F/ G:|
|:B/c/|d/c/B/c/ d/g/f/g/|d/c/A/B/ c/g/f/e/|d/B/G/B/ d/B/G/B/|A/G/F/E/ D/G/B/c/|\
d/c/B/c/ d/g/f/g/|d/c/A/B/ c/g/f/e/|d/B/G/B/ d/B/G/B/|A/G/F/A/ G:|
